X: 97
T: the Balk
T: Longways for as many as will.
%R: march,reel
B: Daniel Wright "Wright's Compleat Collection of Celebrated Country Dances" 1740 p.49
S: http://library.efdss.org/cgi-bin/dancebooks.cgi
Z: 2014 John Chambers <jc:trillian.mit.edu>
M: C|
L: 1/8
K: Gm
% - - - - - - - - - - - - - - - - - - - - - - - - -
[|\
G2 D4 B2 | G4 B4 | A2F2 f2c2 | A4 c4 |\
B2G2 d2g2 | ^f4 d4 | (ed)(cB) A2d2 | B4 G4 |]
[|\
G2Bc d2Bc | d2B2 G2B2 | A2AB c2AB | c2A2 F2f2 |\
d2ga b2ag | a2g2 ^f2=e^f | g2a2 a3g | g4 g4 |]
% - - - - - - - - - - - - - - - - - - - - - - - - -
%%begintext align
%% First Man take hands with his Partner, & lead her down
%% the middle, the man go on the Wo. side, and the Wo.
%% on the Man's, then 1st Man side with Foot & Elbow,
%% the 2d wo. & 1st wo. side with Foot and Elbow the
%% 2d Man, and turn Sides to their (own?) Places.
%%endtext
%%sep 5 5 300
%%begintext align
%% Cross over with ther [sic] Partners, go round the 1st cu.
%% till the 1st Man comes in 2d mans Place, & is two
%% in the 2d wo. Place, then 1st Man cross over
%% with the 1st wo. & 1st wo. 2d Man, then all 4 Clap
%% Hands, and Hands half round and turn single.
%%endtext
% - - - - - - - - - - - - - - - - - - - - - - - - -
%%sep 2 4 300
